icons/fill-new-office-folder-add-plus.svg

<svg xmlns="http://www.w3.org/2000/svg" width="32px" height="32px" viewBox="0 0 32 32" version="1.1">
    <title>fill-new-office-folder-add-plus</title>
    <g id="fill-new-office-folder-add-plus" stroke-width="1" fill-rule="evenodd">
        <path d="M12.0857864,4 C12.3510029,4 12.6053568,4.10535684 12.7928932,4.29289322 L16.2071068,7.70710678 C16.3946432,7.89464316 16.6489971,8 16.9142136,8 L29,8 C29.5522847,8 30,8.44771525 30,9 L30,27 C30,27.5522847 29.5522847,28 29,28 L3,28 C2.44771525,28 2,27.5522847 2,27 L2,5 C2,4.44771525 2.44771525,4 3,4 L12.0857864,4 Z M16,13 C15.4477153,13 15,13.4477153 15,14 L15,17 L12,17 C11.4871642,17 11.0644928,17.3860402 11.0067277,17.8833789 L11,18 C11,18.5522847 11.4477153,19 12,19 L15,19 L15,22 C15,22.5128358 15.3860402,22.9355072 15.8833789,22.9932723 L16,23 C16.5522847,23 17,22.5522847 17,22 L17,19 L20,19 C20.5128358,19 20.9355072,18.6139598 20.9932723,18.1166211 L21,18 C21,17.4477153 20.5522847,17 20,17 L17,17 L17,14 C17,13.4871642 16.6139598,13.0644928 16.1166211,13.0067277 L16,13 Z" id="&#24418;&#29366;" />
    </g>
</svg>

<svg xmlns="http://www.w3.org/2000/svg" viewBox="0 0 32 32"><path fill="currentColor" d="M12.086 4a1 1 0 0 1 .707.293l3.414 3.414a1 1 0 0 0 .707.293H29a1 1 0 0 1 1 1v18a1 1 0 0 1-1 1H3a1 1 0 0 1-1-1V5a1 1 0 0 1 1-1zM16 13a1 1 0 0 0-1 1v3h-3a1 1 0 0 0-.993.883L11 18a1 1 0 0 0 1 1h3v3a1 1 0 0 0 .883.993L16 23a1 1 0 0 0 1-1v-3h3a1 1 0 0 0 .993-.883L21 18a1 1 0 0 0-1-1h-3v-3a1 1 0 0 0-.883-.993z"/></svg>
